images/3235007.svg

<?xml version="1.0" encoding="UTF-8"?>
<svg xmlns="http://www.w3.org/2000/svg" xmlns:xlink="http://www.w3.org/1999/xlink" width="300pt" height="300pt" viewBox="0 0 300 300" version="1.1">
<defs>
<g>
<symbol overflow="visible" id="glyph0-0">
<path style="stroke:none;" d="M 0.546875 1.9375 L 0.546875 -7.75 L 6.046875 -7.75 L 6.046875 1.9375 Z M 1.171875 1.328125 L 5.4375 1.328125 L 5.4375 -7.140625 L 1.171875 -7.140625 Z M 1.171875 1.328125 "/>
</symbol>
<symbol overflow="visible" id="glyph0-1">
<path style="stroke:none;" d="M 4.328125 -7.28125 C 3.546875 -7.28125 2.921875 -6.984375 2.453125 -6.390625 C 1.992188 -5.804688 1.765625 -5.007812 1.765625 -4 C 1.765625 -2.988281 1.992188 -2.1875 2.453125 -1.59375 C 2.921875 -1.007812 3.546875 -0.71875 4.328125 -0.71875 C 5.117188 -0.71875 5.742188 -1.007812 6.203125 -1.59375 C 6.660156 -2.1875 6.890625 -2.988281 6.890625 -4 C 6.890625 -5.007812 6.660156 -5.804688 6.203125 -6.390625 C 5.742188 -6.984375 5.117188 -7.28125 4.328125 -7.28125 Z M 4.328125 -8.171875 C 5.453125 -8.171875 6.351562 -7.789062 7.03125 -7.03125 C 7.707031 -6.28125 8.046875 -5.269531 8.046875 -4 C 8.046875 -2.738281 7.707031 -1.726562 7.03125 -0.96875 C 6.351562 -0.21875 5.453125 0.15625 4.328125 0.15625 C 3.203125 0.15625 2.300781 -0.21875 1.625 -0.96875 C 0.957031 -1.71875 0.625 -2.726562 0.625 -4 C 0.625 -5.269531 0.957031 -6.28125 1.625 -7.03125 C 2.300781 -7.789062 3.203125 -8.171875 4.328125 -8.171875 Z M 4.328125 -8.171875 "/>
</symbol>
<symbol overflow="visible" id="glyph0-2">
<path style="stroke:none;" d="M 1.078125 -8.015625 L 2.546875 -8.015625 L 6.09375 -1.3125 L 6.09375 -8.015625 L 7.15625 -8.015625 L 7.15625 0 L 5.6875 0 L 2.125 -6.703125 L 2.125 0 L 1.078125 0 Z M 1.078125 -8.015625 "/>
</symbol>
<symbol overflow="visible" id="glyph0-3">
<path style="stroke:none;" d="M 1.078125 -8.015625 L 2.171875 -8.015625 L 2.171875 -4.734375 L 6.109375 -4.734375 L 6.109375 -8.015625 L 7.1875 -8.015625 L 7.1875 0 L 6.109375 0 L 6.109375 -3.8125 L 2.171875 -3.8125 L 2.171875 0 L 1.078125 0 Z M 1.078125 -8.015625 "/>
</symbol>
<symbol overflow="visible" id="glyph0-4">
<path style="stroke:none;" d="M 1.078125 -8.015625 L 5.6875 -8.015625 L 5.6875 -7.109375 L 2.171875 -7.109375 L 2.171875 -4.75 L 5.34375 -4.75 L 5.34375 -3.828125 L 2.171875 -3.828125 L 2.171875 0 L 1.078125 0 Z M 1.078125 -8.015625 "/>
</symbol>
</g>
</defs>
<g id="surface52565">
<rect x="0" y="0" width="300" height="300" style="fill:rgb(100%,100%,100%);fill-opacity:1;stroke:none;"/>
<path style="fill:none;stroke-width:1.2;stroke-linecap:butt;stroke-linejoin:miter;stroke:rgb(0%,0%,0%);stroke-opacity:1;stroke-miterlimit:10;" d="M 76.144531 207.792969 L 82.25 196.398438 "/>
<path style="fill:none;stroke-width:1.2;stroke-linecap:butt;stroke-linejoin:miter;stroke:rgb(100%,0%,0%);stroke-opacity:1;stroke-miterlimit:10;" d="M 82.25 196.398438 L 88.351562 185.003906 "/>
<path style="fill:none;stroke-width:1.2;stroke-linecap:butt;stroke-linejoin:miter;stroke:rgb(100%,0%,0%);stroke-opacity:1;stroke-miterlimit:10;" d="M 88.351562 185.003906 L 81.535156 174.023438 "/>
<path style="fill:none;stroke-width:1.2;stroke-linecap:butt;stroke-linejoin:miter;stroke:rgb(0%,0%,0%);stroke-opacity:1;stroke-miterlimit:10;" d="M 81.535156 174.023438 L 74.722656 163.039062 "/>
<path style=" stroke:none;fill-rule:nonzero;fill:rgb(100%,100%,100%);fill-opacity:1;" d="M 84.351562 178.503906 L 93.351562 178.503906 L 93.351562 191.503906 L 84.351562 191.503906 Z M 84.351562 178.503906 "/>
<g style="fill:rgb(100%,0%,0%);fill-opacity:1;">
  <use xlink:href="#glyph0-1" x="84.351562" y="188.405273"/>
</g>
<path style="fill:none;stroke-width:1.2;stroke-linecap:butt;stroke-linejoin:miter;stroke:rgb(0%,0%,0%);stroke-opacity:1;stroke-miterlimit:10;" d="M 74.722656 163.039062 L 48.882812 163.863281 "/>
<path style="fill:none;stroke-width:1.2;stroke-linecap:butt;stroke-linejoin:miter;stroke:rgb(0%,0%,0%);stroke-opacity:1;stroke-miterlimit:10;" d="M 71.945312 157.042969 L 51.273438 157.699219 "/>
<path style="fill:none;stroke-width:1.2;stroke-linecap:butt;stroke-linejoin:miter;stroke:rgb(0%,0%,0%);stroke-opacity:1;stroke-miterlimit:10;" d="M 86.929688 140.25 L 74.722656 163.039062 "/>
<path style="fill:none;stroke-width:1.2;stroke-linecap:butt;stroke-linejoin:miter;stroke:rgb(0%,0%,0%);stroke-opacity:1;stroke-miterlimit:10;" d="M 48.882812 163.863281 L 35.25 141.898438 "/>
<path style="fill:none;stroke-width:1.2;stroke-linecap:butt;stroke-linejoin:miter;stroke:rgb(0%,0%,0%);stroke-opacity:1;stroke-miterlimit:10;" d="M 35.25 141.898438 L 47.457031 119.109375 "/>
<path style="fill:none;stroke-width:1.2;stroke-linecap:butt;stroke-linejoin:miter;stroke:rgb(0%,0%,0%);stroke-opacity:1;stroke-miterlimit:10;" d="M 41.832031 142.492188 L 51.597656 124.257812 "/>
<path style="fill:none;stroke-width:1.2;stroke-linecap:butt;stroke-linejoin:miter;stroke:rgb(0%,0%,0%);stroke-opacity:1;stroke-miterlimit:10;" d="M 47.457031 119.109375 L 73.296875 118.285156 "/>
<path style="fill:none;stroke-width:1.2;stroke-linecap:butt;stroke-linejoin:miter;stroke:rgb(0%,0%,0%);stroke-opacity:1;stroke-miterlimit:10;" d="M 73.296875 118.285156 L 86.929688 140.25 "/>
<path style="fill:none;stroke-width:1.2;stroke-linecap:butt;stroke-linejoin:miter;stroke:rgb(0%,0%,0%);stroke-opacity:1;stroke-miterlimit:10;" d="M 69.492188 123.691406 L 80.394531 141.261719 "/>
<path style="fill:none;stroke-width:1.2;stroke-linecap:butt;stroke-linejoin:miter;stroke:rgb(0%,0%,0%);stroke-opacity:1;stroke-miterlimit:10;" d="M 86.929688 140.25 L 112.765625 139.429688 "/>
<path style="fill:none;stroke-width:1.2;stroke-linecap:butt;stroke-linejoin:miter;stroke:rgb(0%,0%,0%);stroke-opacity:1;stroke-miterlimit:10;" d="M 112.765625 139.429688 L 118.871094 128.035156 "/>
<path style="fill:none;stroke-width:1.2;stroke-linecap:butt;stroke-linejoin:miter;stroke:rgb(0%,0%,100%);stroke-opacity:1;stroke-miterlimit:10;" d="M 118.871094 128.035156 L 124.972656 116.640625 "/>
<path style="fill:none;stroke-width:1.2;stroke-linecap:butt;stroke-linejoin:miter;stroke:rgb(0%,0%,100%);stroke-opacity:1;stroke-miterlimit:10;" d="M 124.972656 116.640625 L 137.894531 116.230469 "/>
<path style="fill:none;stroke-width:1.2;stroke-linecap:butt;stroke-linejoin:miter;stroke:rgb(0%,0%,0%);stroke-opacity:1;stroke-miterlimit:10;" d="M 137.894531 116.230469 L 150.8125 115.816406 "/>
<path style=" stroke:none;fill-rule:nonzero;fill:rgb(100%,100%,100%);fill-opacity:1;" d="M 116.972656 110.140625 L 133.972656 110.140625 L 133.972656 123.140625 L 116.972656 123.140625 Z M 116.972656 110.140625 "/>
<g style="fill:rgb(0%,0%,100%);fill-opacity:1;">
  <use xlink:href="#glyph0-2" x="116.972656" y="120.041992"/>
  <use xlink:href="#glyph0-3" x="124.956055" y="120.041992"/>
</g>
<path style="fill:none;stroke-width:1.2;stroke-linecap:butt;stroke-linejoin:miter;stroke:rgb(0%,0%,0%);stroke-opacity:1;stroke-miterlimit:10;" d="M 150.8125 115.816406 L 157.628906 126.800781 "/>
<path style="fill:none;stroke-width:1.2;stroke-linecap:butt;stroke-linejoin:miter;stroke:rgb(0%,0%,100%);stroke-opacity:1;stroke-miterlimit:10;" d="M 157.628906 126.800781 L 164.445312 137.78125 "/>
<path style="fill:none;stroke-width:1.2;stroke-linecap:butt;stroke-linejoin:miter;stroke:rgb(0%,0%,0%);stroke-opacity:1;stroke-miterlimit:10;" d="M 157.34375 114.804688 L 162.796875 123.59375 "/>
<path style="fill:none;stroke-width:1.2;stroke-linecap:butt;stroke-linejoin:miter;stroke:rgb(0%,0%,100%);stroke-opacity:1;stroke-miterlimit:10;" d="M 162.796875 123.59375 L 168.25 132.378906 "/>
<path style="fill:none;stroke-width:1.2;stroke-linecap:butt;stroke-linejoin:miter;stroke:rgb(0%,0%,0%);stroke-opacity:1;stroke-miterlimit:10;" d="M 163.019531 93.027344 L 150.8125 115.816406 "/>
<path style="fill:none;stroke-width:1.2;stroke-linecap:butt;stroke-linejoin:miter;stroke:rgb(0%,0%,100%);stroke-opacity:1;stroke-miterlimit:10;" d="M 164.445312 137.78125 L 177.363281 137.371094 "/>
<path style="fill:none;stroke-width:1.2;stroke-linecap:butt;stroke-linejoin:miter;stroke:rgb(0%,0%,0%);stroke-opacity:1;stroke-miterlimit:10;" d="M 177.363281 137.371094 L 190.285156 136.960938 "/>
<path style=" stroke:none;fill-rule:nonzero;fill:rgb(100%,100%,100%);fill-opacity:1;" d="M 160.445312 131.28125 L 168.445312 131.28125 L 168.445312 144.28125 L 160.445312 144.28125 Z M 160.445312 131.28125 "/>
<g style="fill:rgb(0%,0%,100%);fill-opacity:1;">
  <use xlink:href="#glyph0-2" x="160.445312" y="141.182617"/>
</g>
<path style="fill:none;stroke-width:1.2;stroke-linecap:butt;stroke-linejoin:miter;stroke:rgb(0%,0%,0%);stroke-opacity:1;stroke-miterlimit:10;" d="M 190.285156 136.960938 L 196.386719 125.566406 "/>
<path style="fill:none;stroke-width:1.2;stroke-linecap:butt;stroke-linejoin:miter;stroke:rgb(0%,0%,100%);stroke-opacity:1;stroke-miterlimit:10;" d="M 196.386719 125.566406 L 202.492188 114.171875 "/>
<path style="fill:none;stroke-width:1.2;stroke-linecap:butt;stroke-linejoin:miter;stroke:rgb(0%,0%,0%);stroke-opacity:1;stroke-miterlimit:10;" d="M 186.140625 131.808594 L 191.023438 122.695312 "/>
<path style="fill:none;stroke-width:1.2;stroke-linecap:butt;stroke-linejoin:miter;stroke:rgb(0%,0%,100%);stroke-opacity:1;stroke-miterlimit:10;" d="M 191.023438 122.695312 L 195.90625 113.578125 "/>
<path style="fill:none;stroke-width:1.2;stroke-linecap:butt;stroke-linejoin:miter;stroke:rgb(0%,0%,0%);stroke-opacity:1;stroke-miterlimit:10;" d="M 190.285156 136.960938 L 203.914062 158.925781 "/>
<path style="fill:none;stroke-width:1.2;stroke-linecap:butt;stroke-linejoin:miter;stroke:rgb(0%,0%,100%);stroke-opacity:1;stroke-miterlimit:10;" d="M 202.492188 114.171875 L 195.675781 103.1875 "/>
<path style="fill:none;stroke-width:1.2;stroke-linecap:butt;stroke-linejoin:miter;stroke:rgb(0%,0%,0%);stroke-opacity:1;stroke-miterlimit:10;" d="M 195.675781 103.1875 L 188.859375 92.207031 "/>
<path style=" stroke:none;fill-rule:nonzero;fill:rgb(100%,100%,100%);fill-opacity:1;" d="M 198.492188 107.671875 L 206.492188 107.671875 L 206.492188 120.671875 L 198.492188 120.671875 Z M 198.492188 107.671875 "/>
<g style="fill:rgb(0%,0%,100%);fill-opacity:1;">
  <use xlink:href="#glyph0-2" x="198.492188" y="117.573242"/>
</g>
<path style="fill:none;stroke-width:1.2;stroke-linecap:butt;stroke-linejoin:miter;stroke:rgb(0%,0%,0%);stroke-opacity:1;stroke-miterlimit:10;" d="M 188.859375 92.207031 L 163.019531 93.027344 "/>
<path style="fill:none;stroke-width:1.2;stroke-linecap:butt;stroke-linejoin:miter;stroke:rgb(0%,0%,0%);stroke-opacity:1;stroke-miterlimit:10;" d="M 186.46875 98.367188 L 165.796875 99.027344 "/>
<path style="fill:none;stroke-width:1.2;stroke-linecap:butt;stroke-linejoin:miter;stroke:rgb(0%,0%,0%);stroke-opacity:1;stroke-miterlimit:10;" d="M 203.914062 158.925781 L 191.707031 181.714844 "/>
<path style="fill:none;stroke-width:1.2;stroke-linecap:butt;stroke-linejoin:miter;stroke:rgb(0%,0%,0%);stroke-opacity:1;stroke-miterlimit:10;" d="M 208.058594 164.078125 L 198.292969 182.308594 "/>
<path style="fill:none;stroke-width:1.2;stroke-linecap:butt;stroke-linejoin:miter;stroke:rgb(0%,0%,0%);stroke-opacity:1;stroke-miterlimit:10;" d="M 229.753906 158.101562 L 203.914062 158.925781 "/>
<path style="fill:none;stroke-width:1.2;stroke-linecap:butt;stroke-linejoin:miter;stroke:rgb(0%,0%,0%);stroke-opacity:1;stroke-miterlimit:10;" d="M 191.707031 181.714844 L 205.339844 203.679688 "/>
<path style="fill:none;stroke-width:1.2;stroke-linecap:butt;stroke-linejoin:miter;stroke:rgb(0%,0%,0%);stroke-opacity:1;stroke-miterlimit:10;" d="M 205.339844 203.679688 L 231.179688 202.855469 "/>
<path style="fill:none;stroke-width:1.2;stroke-linecap:butt;stroke-linejoin:miter;stroke:rgb(0%,0%,0%);stroke-opacity:1;stroke-miterlimit:10;" d="M 207.730469 197.519531 L 228.402344 196.859375 "/>
<path style="fill:none;stroke-width:1.2;stroke-linecap:butt;stroke-linejoin:miter;stroke:rgb(0%,0%,0%);stroke-opacity:1;stroke-miterlimit:10;" d="M 231.179688 202.855469 L 243.386719 180.070312 "/>
<path style="fill:none;stroke-width:1.2;stroke-linecap:butt;stroke-linejoin:miter;stroke:rgb(0%,0%,0%);stroke-opacity:1;stroke-miterlimit:10;" d="M 243.386719 180.070312 L 229.753906 158.101562 "/>
<path style="fill:none;stroke-width:1.2;stroke-linecap:butt;stroke-linejoin:miter;stroke:rgb(0%,0%,0%);stroke-opacity:1;stroke-miterlimit:10;" d="M 236.855469 181.078125 L 225.949219 163.507812 "/>
<path style="fill:none;stroke-width:1.2;stroke-linecap:butt;stroke-linejoin:miter;stroke:rgb(0%,0%,0%);stroke-opacity:1;stroke-miterlimit:10;" d="M 229.753906 158.101562 L 241.960938 135.3125 "/>
<path style="fill:none;stroke-width:1.2;stroke-linecap:butt;stroke-linejoin:miter;stroke:rgb(0%,0%,0%);stroke-opacity:1;stroke-miterlimit:10;" d="M 241.960938 135.3125 L 248.066406 123.921875 "/>
<path style="fill:none;stroke-width:1.2;stroke-linecap:butt;stroke-linejoin:miter;stroke:rgb(20%,80%,80%);stroke-opacity:1;stroke-miterlimit:10;" d="M 248.066406 123.921875 L 254.167969 112.527344 "/>
<path style="fill:none;stroke-width:1.2;stroke-linecap:butt;stroke-linejoin:miter;stroke:rgb(0%,0%,0%);stroke-opacity:1;stroke-miterlimit:10;" d="M 241.960938 135.3125 L 253.355469 141.417969 "/>
<path style="fill:none;stroke-width:1.2;stroke-linecap:butt;stroke-linejoin:miter;stroke:rgb(20%,80%,80%);stroke-opacity:1;stroke-miterlimit:10;" d="M 253.355469 141.417969 L 264.75 147.519531 "/>
<path style="fill:none;stroke-width:1.2;stroke-linecap:butt;stroke-linejoin:miter;stroke:rgb(0%,0%,0%);stroke-opacity:1;stroke-miterlimit:10;" d="M 241.960938 135.3125 L 230.566406 129.210938 "/>
<path style="fill:none;stroke-width:1.2;stroke-linecap:butt;stroke-linejoin:miter;stroke:rgb(20%,80%,80%);stroke-opacity:1;stroke-miterlimit:10;" d="M 230.566406 129.210938 L 219.171875 123.109375 "/>
<path style=" stroke:none;fill-rule:nonzero;fill:rgb(100%,100%,100%);fill-opacity:1;" d="M 251.167969 106.027344 L 258.167969 106.027344 L 258.167969 119.027344 L 251.167969 119.027344 Z M 251.167969 106.027344 "/>
<g style="fill:rgb(20%,80%,80%);fill-opacity:1;">
  <use xlink:href="#glyph0-4" x="251.167969" y="115.928711"/>
</g>
<path style=" stroke:none;fill-rule:nonzero;fill:rgb(100%,100%,100%);fill-opacity:1;" d="M 261.75 141.019531 L 268.75 141.019531 L 268.75 154.019531 L 261.75 154.019531 Z M 261.75 141.019531 "/>
<g style="fill:rgb(20%,80%,80%);fill-opacity:1;">
  <use xlink:href="#glyph0-4" x="261.75" y="150.920898"/>
</g>
<path style=" stroke:none;fill-rule:nonzero;fill:rgb(100%,100%,100%);fill-opacity:1;" d="M 212.171875 116.609375 L 219.171875 116.609375 L 219.171875 129.609375 L 212.171875 129.609375 Z M 212.171875 116.609375 "/>
<g style="fill:rgb(20%,80%,80%);fill-opacity:1;">
  <use xlink:href="#glyph0-4" x="212.171875" y="126.510742"/>
</g>
</g>
</svg>

<svg xmlns="http://www.w3.org/2000/svg" xmlns:xlink="http://www.w3.org/1999/xlink" width="300pt" height="300pt" viewBox="0 0 300 300"><defs><symbol overflow="visible"><path d="M.547 1.938V-7.75h5.5v9.688zm.625-.61h4.266v-8.47H1.171zm0 0"/></symbol><symbol overflow="visible" id="a"><path d="M4.328-7.28c-.78 0-1.406.296-1.875.89-.46.585-.687 1.382-.687 2.39 0 1.012.226 1.813.687 2.406.47.586 1.094.875 1.875.875.79 0 1.414-.288 1.875-.874.457-.593.688-1.394.688-2.406 0-1.008-.23-1.805-.687-2.39-.46-.594-1.086-.89-1.875-.89zm0-.892c1.125 0 2.024.383 2.703 1.14C7.708-6.28 8.048-5.27 8.048-4c0 1.262-.34 2.273-1.016 3.03C6.353-.22 5.454.157 4.33.157S2.3-.22 1.625-.97c-.668-.75-1-1.757-1-3.03 0-1.27.332-2.28 1-3.03.676-.76 1.578-1.142 2.703-1.142zm0 0"/></symbol><symbol overflow="visible" id="b"><path d="M1.078-8.016h1.47l3.546 6.704v-6.704h1.062V0H5.688L2.124-6.703V0H1.078zm0 0"/></symbol><symbol overflow="visible" id="c"><path d="M1.078-8.016h1.094v3.282H6.11v-3.282h1.077V0H6.11v-3.813H2.17V0H1.078zm0 0"/></symbol><symbol overflow="visible" id="d"><path d="M1.078-8.016h4.61v.907H2.171v2.36h3.172v.922H2.172V0H1.078zm0 0"/></symbol></defs><g><path fill="#fff" d="M0 0h300v300H0z"/><path d="M76.145 207.793l6.105-11.395" stroke-width="1.2" stroke="#000" stroke-miterlimit="10" fill="none"/><path d="M82.25 196.398l6.102-11.394M88.352 185.004l-6.817-10.98" stroke-width="1.2" stroke="#f00" stroke-miterlimit="10" fill="none"/><path d="M81.535 174.023l-6.812-10.984" stroke-width="1.2" stroke="#000" stroke-miterlimit="10" fill="none"/><path d="M84.352 178.504h9v13h-9zm0 0" fill="#fff"/><use xlink:href="#a" x="84.352" y="188.405" fill="#f00"/><path d="M74.723 163.04l-25.84.823M71.945 157.043l-20.672.656M86.93 140.25l-12.207 22.79M48.883 163.863L35.25 141.898M35.25 141.898l12.207-22.79M41.832 142.492l9.766-18.234M47.457 119.11l25.84-.825M73.297 118.285L86.93 140.25M69.492 123.69l10.903 17.572M86.93 140.25l25.836-.82M112.766 139.43l6.105-11.395" stroke-width="1.2" stroke="#000" stroke-miterlimit="10" fill="none"/><path d="M118.87 128.035l6.103-11.394M124.973 116.64l12.922-.41" stroke-width="1.2" stroke="#00f" stroke-miterlimit="10" fill="none"/><path d="M137.895 116.23l12.917-.414" stroke-width="1.2" stroke="#000" stroke-miterlimit="10" fill="none"/><path d="M116.973 110.14h17v13h-17zm0 0" fill="#fff"/><g fill="#00f"><use xlink:href="#b" x="116.973" y="120.042"/><use xlink:href="#c" x="124.956" y="120.042"/></g><path d="M150.813 115.816l6.816 10.985" stroke-width="1.2" stroke="#000" stroke-miterlimit="10" fill="none"/><path d="M157.63 126.8l6.815 10.98" stroke-width="1.2" stroke="#00f" stroke-miterlimit="10" fill="none"/><path d="M157.344 114.805l5.453 8.79" stroke-width="1.2" stroke="#000" stroke-miterlimit="10" fill="none"/><path d="M162.797 123.594l5.453 8.785" stroke-width="1.2" stroke="#00f" stroke-miterlimit="10" fill="none"/><path d="M163.02 93.027l-12.208 22.79" stroke-width="1.2" stroke="#000" stroke-miterlimit="10" fill="none"/><path d="M164.445 137.78l12.918-.41" stroke-width="1.2" stroke="#00f" stroke-miterlimit="10" fill="none"/><path d="M177.363 137.37l12.922-.41" stroke-width="1.2" stroke="#000" stroke-miterlimit="10" fill="none"/><path d="M160.445 131.28h8v13h-8zm0 0" fill="#fff"/><use xlink:href="#b" x="160.445" y="141.183" fill="#00f"/><path d="M190.285 136.96l6.102-11.394" stroke-width="1.2" stroke="#000" stroke-miterlimit="10" fill="none"/><path d="M196.387 125.566l6.105-11.394" stroke-width="1.2" stroke="#00f" stroke-miterlimit="10" fill="none"/><path d="M186.14 131.81l4.883-9.115" stroke-width="1.2" stroke="#000" stroke-miterlimit="10" fill="none"/><path d="M191.023 122.695l4.883-9.117" stroke-width="1.2" stroke="#00f" stroke-miterlimit="10" fill="none"/><path d="M190.285 136.96l13.63 21.966" stroke-width="1.2" stroke="#000" stroke-miterlimit="10" fill="none"/><path d="M202.492 114.172l-6.816-10.984" stroke-width="1.2" stroke="#00f" stroke-miterlimit="10" fill="none"/><path d="M195.676 103.188l-6.817-10.98" stroke-width="1.2" stroke="#000" stroke-miterlimit="10" fill="none"/><path d="M198.492 107.672h8v13h-8zm0 0" fill="#fff"/><use xlink:href="#b" x="198.492" y="117.573" fill="#00f"/><path d="M188.86 92.207l-25.84.82M186.47 98.367l-20.673.66M203.914 158.926l-12.207 22.79M208.06 164.078l-9.767 18.23M229.754 158.102l-25.84.824M191.707 181.715l13.633 21.965M205.34 203.68l25.84-.825M207.73 197.52l20.672-.66M231.18 202.855l12.207-22.785M243.387 180.07l-13.633-21.968M236.855 181.078l-10.906-17.57M229.754 158.102l12.207-22.79M241.96 135.313l6.106-11.39" stroke-width="1.2" stroke="#000" stroke-miterlimit="10" fill="none"/><path d="M248.066 123.922l6.102-11.395" stroke-width="1.2" stroke="#3cc" stroke-miterlimit="10" fill="none"/><path d="M241.96 135.313l11.395 6.105" stroke-width="1.2" stroke="#000" stroke-miterlimit="10" fill="none"/><path d="M253.355 141.418l11.395 6.102" stroke-width="1.2" stroke="#3cc" stroke-miterlimit="10" fill="none"/><path d="M241.96 135.313l-11.394-6.102" stroke-width="1.2" stroke="#000" stroke-miterlimit="10" fill="none"/><path d="M230.566 129.21l-11.394-6.1" stroke-width="1.2" stroke="#3cc" stroke-miterlimit="10" fill="none"/><path d="M251.168 106.027h7v13h-7zm0 0" fill="#fff"/><use xlink:href="#d" x="251.168" y="115.929" fill="#3cc"/><path d="M261.75 141.02h7v13h-7zm0 0" fill="#fff"/><use xlink:href="#d" x="261.75" y="150.921" fill="#3cc"/><path d="M212.172 116.61h7v13h-7zm0 0" fill="#fff"/><use xlink:href="#d" x="212.172" y="126.511" fill="#3cc"/></g></svg>
